static/images/mobile/copyright/wikipedia-wordmark-ko.svg

<?xml version="1.0" encoding="UTF-8"?>
<svg width="120px" height="28px" viewBox="0 0 120 28" version="1.1" xmlns="http://www.w3.org/2000/svg" xmlns:xlink="http://www.w3.org/1999/xlink">
    <title>wikipedia-wordmark-ko</title>
    <g id="Page-1" stroke="none" stroke-width="1" fill="none" fill-rule="evenodd">
        <path d="M18.3440671,0.287800126 C19.5332886,0.287800126 20.6828882,0.48928577 21.7928715,0.89219039 C22.764062,1.25676018 23.2199373,1.69805519 23.160501,2.21607541 L22.9821149,4.0867929 L22.9821149,4.0867929 L22.9821149,20.635439 C22.9820896,23.3599676 22.6847791,25.3362114 22.0901821,26.5641705 C21.9117719,26.8903388 21.7234751,27.1205811 21.5252918,27.2548975 C21.3667029,27.3892027 21.1883168,27.4563609 20.9901324,27.4563609 C20.791902,27.4563609 20.6234265,27.3220445 20.4847049,27.053434 C20.3062958,26.708065 20.2071916,25.5856434 20.1873943,23.686147 L20.1576647,15.4837712 C18.2944966,16.0210144 15.4898689,16.577425 11.7437712,17.1530253 L11.7735008,19.5130063 C11.7734871,23.0050093 11.3374319,25.1635269 10.4653342,25.9885703 C10.247294,26.1996229 10.0094451,26.3051493 9.75178867,26.3051493 C9.07787198,26.3051493 8.80038275,25.0004428 8.91931868,22.3910298 L8.90083775,21.1240243 C8.89333063,20.3392957 8.88958194,19.3801798 8.889589,18.2466791 L8.85985932,17.8725311 L8.85985932,17.4408254 L6.76241854,17.6364527 C6.5032017,17.6643345 6.34014751,17.6854697 6.27325574,17.6998577 L5.91648354,17.7861944 L4.40019884,18.4193636 L4.07315632,18.4481425 C3.47852949,18.4481425 2.62623933,18.1027846 1.5162847,17.4120465 C0.505425173,16.7788884 0,16.2416564 0,15.8003614 C0,15.5957015 0.172266892,15.4895827 0.516805513,15.4819971 L0.832469988,15.4837712 C2.55686702,15.6180876 4.04341861,15.6852457 5.29213048,15.6852346 C9.85088262,15.6852457 14.8159671,15.2247611 20.1873989,14.3037807 L20.1873943,4.77751987 C20.1873714,3.95249877 20.127912,3.38648778 20.0090071,3.0794869 C19.9059203,2.83006976 19.4157738,2.42932285 18.5385666,1.87724618 L17.7791684,1.41263941 C17.28364,1.10086181 17.0358842,0.889003229 17.0359005,0.777063673 C17.035881,0.450906494 17.4719361,0.287800126 18.3440671,0.287800126 Z M49.1274375,0.259032336 C50.3364781,0.259032336 51.5059001,0.46051798 52.6357036,0.863411489 C53.6068929,1.20880275 54.0925255,1.63090812 54.0925255,2.12974982 L53.9438702,4.02924621 L53.9141405,20.7505657 C53.9141153,22.8803044 53.6762664,24.6359063 53.200595,26.0173603 C52.883439,26.9766977 52.4771147,27.456372 51.9816208,27.456372 C51.4662597,27.2836875 51.1788587,26.4106867 51.11942,24.8373697 L51.11942,4.28826743 C51.1193971,3.57837305 51.030208,3.10829914 50.8518403,2.87803459 C50.732894,2.72456193 50.1481824,2.32163509 49.0977067,1.66926517 L48.2057739,1.06487491 C48.0670098,0.930591889 47.997657,0.815465172 47.997657,0.719516982 C47.997657,0.431739079 48.374231,0.278244197 49.1274375,0.259032336 Z M82.8541814,17.268152 C84.5190984,17.268152 85.3515937,17.5463629 85.3515937,18.1027735 C85.3515937,18.2370898 85.2425581,18.7167641 85.0245511,19.5417852 C84.9452452,19.8679646 84.9056014,20.1557758 84.9056278,20.4051967 L84.9650872,22.3046931 C84.9650619,25.0484113 84.4893653,26.708065 83.5379961,27.2836764 L83.0920291,27.4563609 L82.8839122,27.4563609 C82.3487298,27.4563609 82.0811501,26.8519706 82.0811731,25.6432012 L82.0811731,19.6569119 C82.0811501,19.1580591 81.8631225,18.9086272 81.4270892,18.9086272 L81.2487031,18.9086272 L79.7647738,18.9963278 C78.6332312,19.054455 76.9575062,19.1307478 74.7375973,19.2252062 C74.024038,19.263541 73.4987892,19.3499222 73.1618509,19.4842274 L72.0618012,19.973491 C72.0023304,19.9927139 71.9428642,20.0022699 71.8834151,20.0022699 C71.4473483,20.00228 70.7864508,19.7362572 69.9007208,19.2042185 L69.6535837,19.0525217 C68.8409259,18.5536689 68.4346107,18.1411527 68.4346107,17.8149733 C68.4346107,17.6422999 68.6427185,17.5559521 69.0589626,17.5559521 L69.1881594,17.5630624 C69.3817132,17.5796518 69.7251518,17.6252659 70.2184752,17.6998577 C71.0905751,17.8149733 71.9924163,17.8725423 72.924002,17.8725311 L76.8010768,17.8703931 C79.1336823,17.8561291 80.6063124,17.7704958 81.2189722,17.6135099 L81.6533798,17.4993447 C82.2592922,17.3452203 82.659559,17.268152 82.8541814,17.268152 Z M109.71305,0.287777903 C110.763529,0.287777903 111.87349,0.479663172 113.042934,0.863378154 C114.133049,1.22795906 114.648383,1.65006442 114.588946,2.12971649 L114.545487,2.59718563 C114.380801,4.56583369 114.32592,7.71973987 114.380827,12.0589042 L114.380827,14.159864 C114.380804,14.4092959 114.391158,14.5915697 114.410557,14.7066853 C114.450158,14.7450201 114.579006,14.7642431 114.797065,14.7642431 C115.15381,14.7642542 115.698885,14.5819804 116.432278,14.2174218 C116.987224,13.9488113 117.492652,13.814506 117.94856,13.8144949 C119.157594,13.814506 119.831494,14.1118954 119.97027,14.7066853 C119.990014,14.7834661 120,14.8505909 120,14.9081487 C120,15.6224312 119.069895,15.9870586 117.209765,16.0020311 L116.432278,16.0017914 L114.380827,16.0593492 L114.380827,21.3549116 C114.380804,23.9259453 114.053766,25.7295046 113.399702,26.7656006 L113.042934,27.1973063 L112.656425,27.4275487 C112.55725,27.4467716 112.458201,27.4563276 112.359117,27.4563276 C111.843761,27.4563276 111.576171,26.7751899 111.556381,25.4129256 L111.556381,17.7861611 C107.917283,18.8913243 104.149755,19.7711366 100.253807,20.4255982 L98.9504014,20.6354057 C98.3755924,20.7312983 98.0287298,20.7984898 97.9098133,20.8368691 L96.72057,21.3549116 C96.6214634,21.3741345 96.5223569,21.3836905 96.4232595,21.3836905 C95.9277369,21.3836905 95.0556254,21.0095536 93.8069251,20.2612577 L93.3851396,20.0008292 C92.5365479,19.4543046 92.1122542,19.0230716 92.1122542,18.7071304 C92.1122542,18.5152674 92.6077699,18.4385199 93.5988081,18.4768881 L97.8206186,18.6207826 L98.1118582,18.6160824 C98.3848978,18.6082435 98.7337863,18.5906068 99.1585206,18.5632248 L99.1585206,14.7354531 C99.15851,14.133286 98.770072,13.5883424 97.9931985,13.1006049 L97.7908877,12.9798623 C97.2557214,12.6728837 96.9782322,12.4522306 96.9584178,12.3179143 C96.958412,12.0301253 97.3647352,11.8862196 98.1773919,11.8862085 C100.892817,11.8862196 102.210898,12.2987357 102.131626,13.1237568 L102.049055,13.7985017 C102.012347,14.1218374 101.990919,14.3593021 101.9848,14.5108958 L101.982966,18.2466458 L102.576852,18.1901522 C104.299539,18.0082353 107.134144,17.5761801 111.080684,16.8939707 C111.239227,16.8556359 111.397793,16.826857 111.556381,16.807634 L111.556381,4.2882341 C111.556358,3.71264496 111.496922,3.30012885 111.377992,3.05068578 C111.25905,2.7820864 110.634693,2.31201249 109.50493,1.64045294 L109.177883,1.43260125 C108.682357,1.1074988 108.434597,0.888981006 108.434616,0.77704145 C108.434593,0.450884271 108.860738,0.287777903 109.71305,0.287777903 Z M43.8353036,5.23801562 L44.57858,5.35313123 L46.3029827,5.52581575 C46.857944,5.66014322 47.1354527,5.88078516 47.1354527,6.18776382 L47.1354527,6.30287942 L44.1326141,12.1740531 C42.606405,14.8985928 40.8027216,17.0954897 38.7215581,18.7647326 C38.3449554,19.0909121 37.9485417,19.3979018 37.5323159,19.6857019 C35.8475477,20.8369136 34.3411748,21.6427561 33.0131926,22.1032408 C32.5771328,22.2567357 32.2203607,22.3334831 31.9428737,22.3334831 C31.8635908,22.3334831 31.7843043,22.3142601 31.7050248,22.2759253 C31.6653776,22.2375905 31.645554,22.2088116 31.6455655,22.1895886 C31.6455629,22.1176691 31.7459044,22.0025292 31.9465906,21.8442251 L32.1807249,21.671535 C34.7772323,19.7720498 36.6601987,18.1795431 37.8296287,16.8940152 C38.7017299,15.9538673 39.5044679,14.8985928 40.2378451,13.7281916 L40.4971611,13.3116798 C40.8990746,12.6587986 41.1495881,12.2124416 41.2487023,11.9725897 L41.0902318,12.0241064 C40.5318722,12.195061 39.2269774,12.5136575 37.1755425,12.9798957 L36.3133417,13.181348 L34.7673262,13.8432961 L34.4700145,13.872075 C34.0537749,13.8720861 33.3005879,13.5650963 32.2104534,12.9511057 C31.3978013,12.4906321 30.9914793,12.1356849 30.9914793,11.8862419 C30.9914793,11.7327581 31.1302216,11.6560107 31.4077143,11.6559995 L34.6186698,11.7711263 C36.5610921,11.7711263 38.899935,11.4833261 41.6352042,10.9077148 C41.7770666,10.8734152 42.0776149,10.163217 42.5368499,8.77718399 L42.8095731,7.93436222 C42.8987612,7.64296647 42.9433605,7.45409659 42.9433708,7.36774322 C42.943357,7.06076457 42.7055081,6.91687006 42.2298253,6.93603748 L39.6183367,7.0394281 C39.2130241,7.05822048 38.993381,7.07172373 38.959407,7.0799431 C38.4638798,7.1375009 38.0377342,7.21425945 37.6809712,7.31018542 L36.461997,7.77067006 L36.2836109,7.79944897 C35.8627944,7.79945922 35.1886561,7.53788293 34.2611923,7.0147201 L34.0240487,6.87847967 C33.2510358,6.43719578 32.8645327,6.08223747 32.8645373,5.81360476 C32.8645327,5.71771213 32.9239967,5.65053173 33.0429234,5.61214134 L36.1646865,5.87117368 L36.6106523,5.87117368 L41.1297756,5.78483697 L41.1297756,5.78483697 L41.262065,5.76711501 C41.4806736,5.73168519 41.8681736,5.64905025 42.4245652,5.51917394 L43.1217569,5.35313123 C43.4190537,5.27635045 43.6569014,5.23801562 43.8353036,5.23801562 Z M80.9811233,0 C81.9324948,0 82.9829924,0.201485645 84.1326172,0.604379153 C85.2425512,1.00732822 85.7678,1.45821249 85.7083636,1.95705419 L85.5197552,3.49655843 C85.494542,3.71737709 85.4781288,3.87575047 85.4705158,3.97167729 L85.4705158,9.58381863 L85.4646352,10.4365696 C85.4332953,12.6309818 85.2766895,14.18867 84.994818,15.1096344 C84.6578407,16.2224778 84.1325919,16.7788884 83.4190717,16.7788884 C82.9235296,16.7788884 82.6955925,15.6468665 82.7352569,13.3828114 L82.7352569,10.9940515 L80.2973086,10.9940515 C80.297288,13.1429909 80.138722,14.6107816 79.8216108,15.3974345 C79.5441009,16.0306037 79.1675086,16.3951512 78.6918303,16.4910772 L78.4539826,16.5198561 C77.9584462,16.4047405 77.6908665,15.5221394 77.6512434,13.8720638 L77.6512434,5.43945682 C77.651225,4.94061512 77.6115847,4.57606756 77.5323189,4.34580301 C77.393556,3.94289839 76.8782178,3.45363484 75.9863034,2.87801237 L75.3024887,2.35996992 C75.2033706,2.24486543 75.1538334,2.14892835 75.1538334,2.07216979 C75.1538334,1.76519114 75.5403204,1.61169626 76.3133448,1.61168515 C77.2052592,1.61169626 78.1665632,1.82276006 79.1972589,2.2448432 C80.089171,2.60941299 80.5153156,3.03152947 80.4756947,3.51118153 L80.2973086,5.49701462 L80.2973086,5.49701462 L80.2973086,9.55502862 L82.7352569,9.55502862 L82.7352569,4.02923509 C82.7352328,3.08909839 82.1604331,2.24487654 81.0108542,1.49656954 L79.9999981,0.834621476 C79.8612328,0.700338455 79.7918605,0.575622475 79.79188,0.460484646 C79.7918605,0.153517105 80.1882742,0 80.9811233,0 Z M71.2887894,3.88532948 C72.2005298,3.88532948 73.0924614,4.06762548 73.9645867,4.43215083 C74.4006269,4.62404721 74.6682066,4.82549952 74.7673258,5.03654109 L74.8267852,5.55458354 L74.8267852,5.61214134 L74.7152827,6.77775491 C74.6905067,7.07515124 74.6781224,7.28140652 74.6781299,7.39652212 L74.6781299,11.7711263 C74.678115,13.7281916 74.3411629,15.0520766 73.6672738,15.7427924 L73.2807696,16.0593826 L72.775341,16.1744982 L72.7158817,16.1744982 C72.2996341,16.1745093 72.041965,15.9250773 71.9428733,15.4262134 C71.8635789,15.004108 71.7347438,14.7738657 71.5563692,14.7354864 L70.8154781,14.7374025 C68.7984256,14.7482507 67.4795542,14.8051628 66.8588598,14.908171 L66.8148549,14.9645655 C66.7292262,15.0842818 66.5357762,15.3820872 66.2345079,15.8579192 C65.9173691,16.3375934 65.5605969,16.577425 65.164189,16.577425 C64.4506377,16.577425 64.0938655,15.3974345 64.0938701,13.0374535 L64.1533295,9.75650315 L64.148474,9.22025708 C64.1290558,8.21002191 64.0513944,7.57332903 63.9154817,7.31018542 C63.8328929,7.15030881 63.495664,6.87716388 62.903797,6.49075065 L62.5181203,6.24531051 C62.0622415,5.95752149 61.8343067,5.75606918 61.8343067,5.64093136 C61.8343067,5.3339527 62.2802691,5.18045782 63.1722042,5.18044671 C64.3614429,5.18045782 65.3722979,5.37233198 66.2047736,5.75604696 C66.7201048,6.00549003 66.9777739,6.30289053 66.9777819,6.64823735 L66.9183226,8.63407044 L71.8536797,8.51895484 L71.8536786,6.90725858 C71.8536671,6.23573236 71.338329,5.54500539 70.307663,4.83507767 L69.7130419,4.37459302 C69.6932069,4.33625819 69.6833008,4.29781225 69.6833123,4.25947742 C69.6833019,4.01006768 70.2184602,3.88532948 71.2887894,3.88532948 Z M106.591284,4.92140326 C107.701223,4.92140326 108.543594,5.06534222 109.118422,5.35312012 C109.356248,5.46825795 109.475189,5.59297393 109.475189,5.72726806 C109.475189,5.95752149 109.326518,6.37963797 109.029221,6.99359528 C108.930046,7.22385983 108.860726,7.42532325 108.821102,7.59798554 C108.385028,10.0347251 107.919248,11.7999163 107.42375,12.8935479 C107.403892,12.9703286 107.374162,13.0470539 107.334561,13.1237902 C106.720109,14.4285078 106.125481,15.2823189 105.5507,15.6852346 C105.392122,15.8003614 105.253368,15.8579192 105.134461,15.8579192 C104.95606,15.8579192 104.866871,15.7523595 104.866883,15.541329 L104.985813,14.908171 L105.461511,11.857463 L105.461511,11.8286841 L105.502656,11.5143933 C105.603463,10.6539771 105.688853,9.23338992 105.758819,7.2526165 C105.580418,6.83052225 105.253368,6.60027992 104.777694,6.56188954 L103.974958,6.64822624 L103.974958,6.64822624 L100.050445,6.79212075 L99.3666398,6.87845745 L97.4638475,7.4252788 C97.3647409,7.44450177 97.2656332,7.4540577 97.166537,7.4540577 C96.7123059,7.45407807 96.0498956,7.19612309 95.1793018,6.68019277 L94.9367056,6.53308841 C94.163695,6.07262599 93.7771942,5.69847805 93.7771942,5.41066681 C93.7771942,5.2379934 93.9060259,5.1516567 94.1636984,5.15164558 L95.3529417,5.32431899 L97.0664171,5.44181862 C97.3202439,5.45649623 97.5096038,5.46505196 97.6344967,5.4674934 L102.339745,5.46822461 C103.687544,5.46823572 104.658752,5.39144384 105.253391,5.23798229 L106.412906,4.92140326 L106.591284,4.92140326 Z M71.8239546,9.78528206 L67.0075162,9.92918767 L66.9183272,9.92918767 L66.9183272,13.5842748 L71.8536843,13.4691592 L71.8536843,10.5047879 L71.8239546,9.78528206 Z M8.68146863,2.41753883 C9.23643677,2.41753883 9.87069934,2.57105594 10.5842575,2.87802348 C10.9608372,3.05071911 11.149134,3.22340363 11.1491478,3.39606593 C11.149134,3.51120376 11.0004787,3.799015 10.703182,4.25947742 C11.595101,4.25948853 12.5167634,4.48973085 13.4681728,4.95020439 L13.5738744,5.01418219 C13.5892921,5.02271339 13.60361,5.03017047 13.6168281,5.03654109 C15.0835434,5.84240589 15.8664613,6.97442786 15.9655828,8.43260702 C15.9853834,8.56693449 15.9953124,8.71082899 15.9953124,8.86431276 C15.9953124,9.63179829 15.6880729,10.3992727 15.0736488,11.166736 C13.8843906,12.7016959 12.1500794,13.4691592 9.87071082,13.4691592 C7.90844997,13.4691592 6.31288459,12.9319382 5.08400896,11.857463 C4.11278747,11.0132522 3.62718591,9.94838842 3.62718591,8.66284934 C3.62718591,6.97442786 4.73713939,5.66972137 6.95706586,4.74874096 C7.27418739,4.61444683 7.60122991,4.49933123 7.93819112,4.40337192 L8.80039308,4.1731296 C8.9787677,4.07723697 9.06796132,3.96209914 9.0679728,3.82777167 C9.06796276,3.67669216 8.9237968,3.4594941 8.63547416,3.17617748 L8.50308139,3.050708 C8.30486364,2.8780457 8.20576051,2.74372935 8.20577084,2.64778116 C8.20576051,2.4943085 8.36432644,2.41753883 8.68146863,2.41753883 Z M9.424745,5.75604696 C8.33459562,5.75604696 7.48230546,6.18776382 6.86787338,7.05116419 C6.53091217,7.55002812 6.36244477,8.0872602 6.36244477,8.66284934 C6.36244477,9.7181461 6.8678642,10.5335779 7.87872947,11.1091782 C8.43369875,11.4353576 9.01840918,11.5984417 9.63286307,11.5984417 C11.0995819,11.5984417 12.1599889,11.1379682 12.8140877,10.2169878 C13.1312035,9.75651427 13.2897844,9.22888255 13.2897844,8.63407044 C13.2897844,7.07995421 12.3780177,6.14939565 10.5545255,5.84238366 C10.1977407,5.78482586 9.8211472,5.75604696 9.424745,5.75604696 Z" id="wikipedia-wordmark-ko" fill="#000000" fill-rule="nonzero"></path>
    </g>
</svg>

<svg xmlns="http://www.w3.org/2000/svg" width="120" height="28"><path fill="#000" fill-rule="nonzero" d="M18.344.288c1.19 0 2.339.201 3.449.604.971.365 1.427.806 1.368 1.324l-.179 1.87v16.55c0 2.724-.297 4.7-.892 5.928-.178.326-.367.557-.565.69a.807.807 0 0 1-.535.202c-.198 0-.367-.134-.505-.403-.179-.345-.278-1.467-.298-3.367l-.03-8.202c-1.863.537-4.667 1.093-8.413 1.669l.03 2.36c0 3.492-.437 5.65-1.309 6.476-.218.21-.456.316-.713.316-.674 0-.952-1.305-.833-3.914l-.018-1.267a308.3 308.3 0 0 1-.011-2.877l-.03-.374v-.432l-2.098.195c-.259.028-.422.05-.489.064l-.357.086-1.516.633-.327.03c-.594 0-1.447-.346-2.557-1.037C.506 16.779 0 16.242 0 15.8c0-.204.172-.31.517-.318l.315.002c1.725.134 3.211.201 4.46.201 4.559 0 9.524-.46 14.895-1.381V4.778c0-.826-.06-1.392-.178-1.699-.103-.249-.593-.65-1.47-1.202l-.76-.464c-.495-.312-.743-.524-.743-.636 0-.326.436-.49 1.308-.49ZM49.127.259c1.21 0 2.379.202 3.509.604.97.346 1.457.768 1.457 1.267l-.15 1.9-.029 16.72c0 2.13-.238 3.886-.713 5.267-.318.96-.724 1.44-1.22 1.44-.515-.173-.802-1.046-.862-2.62V4.288c0-.71-.089-1.18-.267-1.41-.12-.153-.704-.556-1.754-1.209l-.892-.604c-.139-.134-.208-.25-.208-.345 0-.288.376-.442 1.13-.461Zm33.727 17.01c1.665 0 2.498.277 2.498.834 0 .134-.11.614-.327 1.439a3.71 3.71 0 0 0-.12.863l.06 1.9c0 2.743-.476 4.403-1.427 4.979l-.446.172h-.208c-.535 0-.803-.604-.803-1.813v-5.986c0-.499-.218-.748-.654-.748h-.178l-1.484.087c-1.132.058-2.807.135-5.027.23-.714.038-1.24.124-1.576.258l-1.1.49a.577.577 0 0 1-.179.028c-.436 0-1.097-.266-1.982-.798l-.247-.151c-.813-.5-1.22-.912-1.22-1.238 0-.173.209-.259.625-.259l.13.007c.193.017.536.062 1.03.137a20.66 20.66 0 0 0 2.705.173l3.877-.003c2.333-.014 3.805-.1 4.418-.256l.434-.115c.606-.154 1.007-.23 1.201-.23ZM109.713.287c1.05 0 2.16.192 3.33.575 1.09.365 1.605.787 1.546 1.267l-.044.467c-.164 1.969-.22 5.123-.164 9.462v2.1c0 .25.01.433.03.548.04.038.168.057.386.057.357 0 .902-.182 1.635-.547.555-.268 1.06-.402 1.517-.403 1.209 0 1.882.298 2.021.893.02.076.03.144.03.201 0 .714-.93 1.08-2.79 1.094h-.778l-2.051.057v5.296c0 2.57-.327 4.375-.981 5.41l-.357.432-.387.23c-.099.02-.198.03-.297.03-.515 0-.783-.682-.803-2.044v-7.627a90.382 90.382 0 0 1-11.302 2.64l-1.304.21c-.574.095-.921.162-1.04.2l-1.19.519c-.099.02-.198.029-.297.029-.495 0-1.367-.374-2.616-1.123l-.422-.26c-.848-.547-1.273-.978-1.273-1.294 0-.192.496-.268 1.487-.23l4.222.144.29-.005c.274-.008.623-.025 1.048-.053v-3.828c0-.602-.389-1.147-1.166-1.634l-.202-.121c-.535-.307-.813-.528-.833-.662 0-.288.407-.432 1.22-.432 2.715 0 4.033.413 3.954 1.238l-.083.675c-.037.323-.058.56-.064.712l-.002 3.736.594-.057c1.723-.182 4.557-.614 8.504-1.296.158-.038.317-.067.475-.086V4.288c0-.575-.06-.988-.178-1.237-.119-.269-.743-.739-1.873-1.41l-.327-.208c-.496-.326-.743-.544-.743-.656 0-.326.426-.49 1.278-.49Zm-65.878 4.95.744.115 1.724.173c.555.134.832.355.832.662v.115l-3.002 5.871c-1.527 2.725-3.33 4.921-5.411 6.59-.377.327-.773.634-1.19.922-1.684 1.15-3.19 1.957-4.519 2.417-.436.154-.793.23-1.07.23a.542.542 0 0 1-.238-.057c-.04-.038-.06-.067-.06-.086 0-.072.1-.187.302-.346l.234-.172c2.596-1.9 4.48-3.492 5.649-4.778a21.151 21.151 0 0 0 2.408-3.166l.26-.416c.401-.653.652-1.1.75-1.34l-.158.052c-.558.171-1.863.49-3.914.956l-.863.201-1.546.662-.297.03c-.416 0-1.17-.308-2.26-.922-.812-.46-1.219-.815-1.219-1.065 0-.153.14-.23.417-.23l3.21.115c1.943 0 4.282-.288 7.017-.863.142-.035.443-.745.902-2.13l.273-.844c.089-.291.133-.48.133-.566 0-.307-.237-.451-.713-.432l-2.612.103a9.764 9.764 0 0 0-.659.04 8.981 8.981 0 0 0-1.278.231l-1.219.46-.178.03c-.421 0-1.095-.262-2.023-.785l-.237-.137c-.773-.44-1.16-.796-1.16-1.064 0-.096.06-.163.179-.202l3.122.26h.446l4.519-.087.132-.018a20.45 20.45 0 0 0 1.163-.248l.697-.166c.297-.077.535-.115.713-.115ZM80.981 0c.951 0 2.002.201 3.152.604 1.11.403 1.635.854 1.575 1.353l-.188 1.54c-.025.22-.042.379-.05.475v5.612l-.005.853c-.032 2.194-.188 3.752-.47 4.673-.337 1.112-.862 1.669-1.576 1.669-.495 0-.723-1.132-.684-3.396v-2.389h-2.438c0 2.149-.158 3.617-.475 4.403-.278.634-.654.998-1.13 1.094l-.238.029c-.496-.115-.763-.998-.803-2.648V5.44c0-.498-.04-.863-.119-1.093-.138-.403-.654-.892-1.546-1.468l-.684-.518c-.099-.115-.148-.211-.148-.288 0-.307.386-.46 1.16-.46.891 0 1.853.21 2.883.633.892.364 1.318.787 1.279 1.266l-.179 1.986v4.058h2.438V4.029c0-.94-.575-1.784-1.724-2.532L80 .835c-.139-.135-.208-.26-.208-.375 0-.306.396-.46 1.19-.46ZM71.29 3.885c.912 0 1.803.183 2.676.547.436.192.703.393.802.605l.06.518v.057l-.112 1.166a8.818 8.818 0 0 0-.037.619v4.374c0 1.957-.337 3.281-1.01 3.972l-.387.316-.506.115h-.06c-.415 0-.673-.249-.772-.748-.08-.422-.208-.652-.387-.69l-.74.001c-2.018.011-3.336.068-3.957.171l-.044.057c-.086.12-.28.417-.58.893-.318.48-.674.72-1.07.72-.714 0-1.071-1.18-1.071-3.54l.06-3.281-.006-.537c-.019-1.01-.097-1.647-.233-1.91-.082-.16-.42-.433-1.011-.82l-.386-.245c-.456-.287-.684-.489-.684-.604 0-.307.446-.46 1.338-.46 1.19 0 2.2.191 3.033.575.515.25.773.547.773.892l-.06 1.986 4.936-.115V6.907c0-.671-.516-1.362-1.546-2.072l-.595-.46a.249.249 0 0 1-.03-.116c0-.249.535-.374 1.606-.374Zm35.302 1.036c1.11 0 1.953.144 2.527.432.238.115.357.24.357.374 0 .23-.148.653-.446 1.267-.099.23-.168.431-.208.604-.436 2.437-.902 4.202-1.397 5.296-.02.076-.05.153-.09.23-.614 1.305-1.209 2.158-1.783 2.561-.159.115-.298.173-.417.173-.178 0-.267-.106-.267-.317l.119-.633.476-3.05v-.03l.04-.314c.101-.86.187-2.28.257-4.261-.179-.422-.506-.653-.981-.691l-.803.086-3.925.144-.683.086-1.903.547c-.1.02-.198.03-.297.03-.455 0-1.117-.259-1.988-.775l-.242-.147c-.773-.46-1.16-.835-1.16-1.122 0-.173.129-.26.387-.26l1.189.173 1.713.118c.254.014.444.023.568.025l4.706.001c1.348 0 2.319-.077 2.913-.23l1.16-.317h.178ZM71.824 9.785l-4.816.144h-.09v3.655l4.936-.115v-2.964l-.03-.72ZM8.681 2.418c.555 0 1.19.153 1.903.46.377.173.565.345.565.518 0 .115-.149.403-.446.863.892 0 1.814.23 2.765.691l.106.064.043.023c1.467.805 2.25 1.937 2.349 3.396.02.134.03.278.03.431 0 .768-.308 1.535-.922 2.303-1.19 1.535-2.924 2.302-5.203 2.302-1.963 0-3.558-.537-4.787-1.612-.971-.844-1.457-1.909-1.457-3.194 0-1.689 1.11-2.993 3.33-3.914.317-.135.644-.25.981-.346l.862-.23c.179-.096.268-.21.268-.345 0-.151-.144-.369-.433-.652l-.132-.125c-.198-.173-.297-.307-.297-.403 0-.154.158-.23.475-.23Zm.744 3.338c-1.09 0-1.943.432-2.557 1.295a2.825 2.825 0 0 0-.506 1.612c0 1.055.506 1.87 1.517 2.446a3.41 3.41 0 0 0 1.754.49c1.467 0 2.527-.461 3.181-1.382.317-.46.476-.988.476-1.583 0-1.554-.912-2.485-2.735-2.792a7.092 7.092 0 0 0-1.13-.086Z"/></svg>
